wp-content/themes/canvas/img/logo-reverse.svg

<svg height="37" viewBox="0 0 111 37" width="111" xmlns="http://www.w3.org/2000/svg"><g fill="#fff" fill-rule="evenodd" transform=""><path d="m3.59736127 10.7550201 9.27903053-9.18875504h4.8016282l-10.77664452 10.42685024 10.83840172 12.6047046h-4.8170674l-8.58426123-10.2478486-.7410873.7160069v9.5318417h-3.59736127v-23.03155484h3.59736127zm30.96200993 8.248996h-10.2053897l-2.6555629 5.5938038h-3.875269l11.7956396-24.47848542 11.3787779 24.47848542h-3.9370263zm-1.4667353-3.2667814-3.535604-7.83132535-3.7054365 7.83132535zm11.4518574-.4922548v9.35284h-3.5973613v-23.03155484h4.0759802c1.9968285 0 3.5047203.13424995 4.5237204.40275387 1.029293.26850393 1.9350574.7756704 2.7173201 1.52151463 1.3689598 1.29279668 2.0534294 2.92368494 2.0534294 4.89271371 0 2.10825303-.7307871 3.77891903-2.1923833 5.01204823-1.4615961 1.2331291-3.4326628 1.8496844-5.9132591 1.8496844zm0-3.222031h1.3432207c3.3040308 0 4.9560214-1.2281384 4.9560214-3.68445206 0-2.37675695-1.7034545-3.56511761-5.1104145-3.56511761h-1.1888276zm14.045663-10.45668384v19.76477334h7.0094507v3.2667815h-10.606812v-23.03155484zm24.0400486 17.43775104h-10.2053897l-2.6555628 5.5938038h-3.875269l11.7956395-24.47848542 11.378778 24.47848542h-3.9370263zm-1.4667352-3.2667814-3.535604-7.83132535-3.7054365 7.83132535zm7.8544961 8.8605852v-24.5978199l17.3846732 17.5720023v-16.00573724h3.597361v24.43373494l-17.3846729-17.52725186v16.12507176z"/><path d="m0 32.9931153c0-.9975188.36859332-1.8542706 1.105791-2.5702811.73411318-.7160105 1.61626957-1.0740103 2.64649562-1.0740103 1.01788802 0 1.89079102.3610597 2.61873518 1.0831899.73102867.7221302 1.09653752 1.5895914 1.09653752 2.6024096 0 1.018938-.36705108 1.8833394-1.10116426 2.5932301-.73719769.7129506-1.62706523 1.0694205-2.66962932 1.0694205-.92226824 0-1.75044653-.3166922-2.4845597-.950086-.8081414-.7007111-1.21220604-1.6186595-1.21220604-2.7538727zm1.08728404.0137694c0 .7833277.26526381 1.4274214.79579938 1.9323006.52745107.5048792 1.13663249.757315 1.82756254.757315.74953572 0 1.38185061-.2570256 1.89696364-.7710844.51511303-.5201785.77266568-1.1535629.77266568-1.9001721 0-.7557888-.25446819-1.3891732-.7634122-1.9001721-.5058595-.5140588-1.13200546-.7710843-1.87845668-.7710843-.74336671 0-1.3710549.2570255-1.88308342.7710843-.51202852.5079391-.76803894 1.1352038-.76803894 1.881813zm13.33677796.5415949 2.211582 3.0200804h-1.3186211l-2.0403926-2.9007459h-.1943231v2.9007459h-1.0780306v-7.0866323h1.2631002c.9438598 0 1.6255261.1759401 2.0450194.5278256.4626763.3916638.694011.9087748.694011 1.5513482 0 .5018193-.1449697.9332551-.4349136 1.2943202-.2899438.3610651-.6724172.5920821-1.1474316.6930579zm-1.3417548-.8123924h.3423788c1.0209725 0 1.5314511-.3870682 1.5314511-1.1612163 0-.7251901-.4965985-1.0877797-1.4898104-1.0877797h-.3840195zm9.6955331-2.248996v6.0814688h-1.0780306v-6.0814688h-1.6424929v-1.0051635h4.3583896v1.0051635zm6.8593411 1.7670683h3.0814092v-2.7722318h1.0780306v7.0866323h-1.0780306v-3.309237h-3.0814092v3.309237h-1.0780306v-7.0866323h1.0780306zm8.6961571.7389558c0-.9975188.3685933-1.8542706 1.105791-2.5702811.7341131-.7160105 1.6162695-1.0740103 2.6464956-1.0740103 1.017888 0 1.890791.3610597 2.6187352 1.0831899.7310286.7221302 1.0965375 1.5895914 1.0965375 2.6024096 0 1.018938-.3670511 1.8833394-1.1011643 2.5932301-.7371977.7129506-1.6270652 1.0694205-2.6696293 1.0694205-.9222682 0-1.7504465-.3166922-2.4845597-.950086-.8081414-.7007111-1.212206-1.6186595-1.212206-2.7538727zm1.087284.0137694c0 .7833277.2652638 1.4274214.7957994 1.9323006.5274511.5048792 1.1366325.757315 1.8275625.757315.7495357 0 1.3818506-.2570256 1.8969637-.7710844.515113-.5201785.7726656-1.1535629.7726656-1.9001721 0-.7557888-.2544681-1.3891732-.7634121-1.9001721-.5058596-.5140588-1.1320055-.7710843-1.8784567-.7710843-.7433667 0-1.3710549.2570255-1.8830835.7710843-.5120285.5079391-.7680389 1.1352038-.7680389 1.881813zm10.9169926 3.5616753v-7.0866323h1.499064c.7186906 0 1.2862318.0703761 1.7026405.2111302.4472538.1376944.8528607.3717712 1.2168328.7022376.7371977.6670525 1.105791 1.5436931 1.105791 2.6299483 0 1.0893151-.3840157 1.9705455-1.1520584 2.6437178-.3855637.3365861-.7896283.5706629-1.2122061.7022375-.3948171.1315746-.9546472.1973609-1.6795068.1973609zm1.0780306-1.0051636h.4858077c.484268 0 .8867904-.0504871 1.2075793-.151463.320789-.1070955.6107285-.276916.8698272-.5094664.5305356-.4804002.7957994-1.106135.7957994-1.8772232 0-.7772079-.2621793-1.4075325-.7865459-1.8909925-.4719299-.4314422-1.1674763-.6471601-2.08666-.6471601h-.4858077zm8.626756-2.5702811c0-.9975188.3685933-1.8542706 1.105791-2.5702811.7341131-.7160105 1.6162695-1.0740103 2.6464956-1.0740103 1.017888 0 1.890791.3610597 2.6187352 1.0831899.7310286.7221302 1.0965375 1.5895914 1.0965375 2.6024096 0 1.018938-.3670511 1.8833394-1.1011643 2.5932301-.7371977.7129506-1.6270652 1.0694205-2.6696293 1.0694205-.9222682 0-1.7504465-.3166922-2.4845597-.950086-.8081414-.7007111-1.212206-1.6186595-1.212206-2.7538727zm1.087284.0137694c0 .7833277.2652638 1.4274214.7957994 1.9323006.527451.5048792 1.1366325.757315 1.8275625.757315.7495357 0 1.3818506-.2570256 1.8969637-.7710844.515113-.5201785.7726656-1.1535629.7726656-1.9001721 0-.7557888-.2544681-1.3891732-.7634122-1.9001721-.5058595-.5140588-1.1320054-.7710843-1.8784566-.7710843-.7433667 0-1.3710549.2570255-1.8830835.7710843-.5120285.5079391-.7680389 1.1352038-.7680389 1.881813zm10.9169926 3.5616753v-7.56856l5.2097099 5.4067699v-4.9248422h1.0780306v7.5180723l-5.2097099-5.3930006v4.9615606zm13.1517083-6.0814688v6.0814688h-1.0780306v-6.0814688h-1.6424929v-1.0051635h4.3583897v1.0051635zm6.8593411-1.0051635v7.0866323h-1.0780306v-7.0866323zm10.1767143.3809524v1.2667814c-.623071-.5171187-1.267724-.7756741-1.933978-.7756741-.734113 0-1.3525478.2616153-1.8553228.7848537-.5058595.5201785-.7587854 1.1566227-.7587854 1.9093517 0 .7435493.2529259 1.370814.7587854 1.8818129.5058595.510999 1.1258366.7664946 1.8599498.7664946.379395 0 .701721-.0611966.966989-.1835915.148056-.0611975.301508-.1438129.46036-.2478486.158853-.1040357.326185-.2294886.502002-.3763626v1.2897304c-.616902.3457657-1.264639.518646-1.943231.518646-1.0209728 0-1.8923336-.3534101-2.6141087-1.060241-.7186906-.7129505-1.0780306-1.5727622-1.0780306-2.5794607 0-.9026627.3007352-1.7073975.9022145-2.4142283.7402822-.8659443 1.6980079-1.2989099 2.8732058-1.2989099.641578 0 1.261555.1728803 1.85995.518646zm8.580488.6746988-.874454.5140562c-.163479-.2815084-.319244-.465098-.4673-.5507745-.154226-.097916-.353174-.1468732-.59685-.1468732-.299197 0-.547497.0841452-.744905.2524383-.197409.1652332-.296112.3733015-.296112.6242111 0 .3457658.259095.6242101.777293.8353414l.712518.2891566c.579888.2325504 1.004001.5163495 1.272354.8514056.268352.3350562.402526.7458381.402526 1.2323581 0 .6517531-.218997 1.1902828-.656997 1.6156052-.441085.4283824-.988577.6425703-1.642493.6425703-.619986 0-1.132007-.1820597-1.536078-.5461847-.397902-.364125-.646201-.8766462-.744905-1.5375789l1.091911-.238669c.049352.4161429.135717.7037667.259097.8628801.222085.3059874.545953.4589788.971616.4589788.336211 0 .615355-.1116837.83744-.3350545.222084-.2233708.333125-.5064049.333125-.8491107 0-.1376944-.019278-.2639123-.057834-.3786575-.038557-.1147453-.098704-.2203094-.180443-.3166954-.08174-.096386-.187383-.1866509-.316932-.2707975-.129549-.0841465-.283772-.164467-.462674-.2409638l-.689384-.2845669c-.97779-.410023-1.466677-1.0097493-1.466677-1.7991967 0-.5324181.205117-.977623.615356-1.3356283.41024-.3610651.920719-.5415949 1.531452-.5415949.823563 0 1.466674.3977776 1.92935 1.1933448z"/></g></svg>

<svg width="111px" height="37px" viewBox="0 0 111 37" version="1.1" xmlns="http://www.w3.org/2000/svg" xmlns:xlink="http://www.w3.org/1999/xlink">
    <g id="Page-1" stroke="none" stroke-width="1" fill="none" fill-rule="evenodd">
        <g id="Concept-Two" transform="translate(-88.000000, -7925.000000)" fill="#FFFFFF">
            <g id="Group-23" transform="translate(0.000000, 6777.000000)">
                <g id="Group-26" transform="translate(0.000000, 809.000000)">
                    <g id="Group-21" transform="translate(88.000000, 339.000000)">
                        <g id="logo">
                            <path d="M3.59736127,10.7550201 L12.8763918,1.56626506 L17.67802,1.56626506 L6.90137548,11.9931153 L17.7397772,24.5978199 L12.9227098,24.5978199 L4.33844857,14.3499713 L3.59736127,15.0659782 L3.59736127,24.5978199 L0,24.5978199 L0,1.56626506 L3.59736127,1.56626506 L3.59736127,10.7550201 Z M34.5593712,19.0040161 L24.3539815,19.0040161 L21.6984186,24.5978199 L17.8231496,24.5978199 L29.6187892,0.119334481 L40.9975671,24.5978199 L37.0605408,24.5978199 L34.5593712,19.0040161 Z M33.0926359,15.7372347 L29.5570319,7.90590935 L25.8515954,15.7372347 L33.0926359,15.7372347 Z M44.5444933,15.2449799 L44.5444933,24.5978199 L40.947132,24.5978199 L40.947132,1.56626506 L45.0231122,1.56626506 C47.0199407,1.56626506 48.5278325,1.70051501 49.5468326,1.96901893 C50.5761256,2.23752286 51.48189,2.74468933 52.2641527,3.49053356 C53.6331125,4.78333024 54.3175821,6.4142185 54.3175821,8.38324727 C54.3175821,10.4915003 53.586795,12.1621663 52.1251988,13.3952955 C50.6636027,14.6284246 48.692536,15.2449799 46.2119397,15.2449799 L44.5444933,15.2449799 Z M44.5444933,12.0229489 L45.887714,12.0229489 C49.1917448,12.0229489 50.8437354,10.7948105 50.8437354,8.33849684 C50.8437354,5.96173989 49.1402809,4.77337923 45.7333209,4.77337923 L44.5444933,4.77337923 L44.5444933,12.0229489 Z M58.5901563,1.56626506 L58.5901563,21.3310384 L65.599607,21.3310384 L65.599607,24.5978199 L54.992795,24.5978199 L54.992795,1.56626506 L58.5901563,1.56626506 Z M82.6302049,19.0040161 L72.4248152,19.0040161 L69.7692524,24.5978199 L65.8939834,24.5978199 L77.6896229,0.119334481 L89.0684009,24.5978199 L85.1313746,24.5978199 L82.6302049,19.0040161 Z M81.1634697,15.7372347 L77.6278657,7.90590935 L73.9224292,15.7372347 L81.1634697,15.7372347 Z M89.0179658,24.5978199 L89.0179658,0 L106.402639,17.5720023 L106.402639,1.56626506 L110,1.56626506 L110,26 L92.6153271,8.47274814 L92.6153271,24.5978199 L89.0179658,24.5978199 Z" id="KAPLAN-Copy"></path>
                            <path d="M0,32.9931153 C0,31.9955965 0.368593315,31.1388447 1.105791,30.4228342 C1.83990418,29.7068237 2.72206057,29.3488239 3.75228662,29.3488239 C4.77017464,29.3488239 5.64307764,29.7098836 6.3710218,30.4320138 C7.10205047,31.154144 7.46755932,32.0216052 7.46755932,33.0344234 C7.46755932,34.0533614 7.10050824,34.9177628 6.36639506,35.6276535 C5.62919737,36.3406041 4.73932983,36.697074 3.69676574,36.697074 C2.7744975,36.697074 1.94631921,36.3803818 1.21220604,35.746988 C0.404064638,35.0462769 0,34.1283285 0,32.9931153 Z M1.08728404,33.0068847 C1.08728404,33.7902124 1.35254785,34.4343061 1.88308342,34.9391853 C2.41053449,35.4440645 3.01971591,35.6965003 3.71064596,35.6965003 C4.46018168,35.6965003 5.09249657,35.4394747 5.6076096,34.9254159 C6.12272263,34.4052374 6.38027528,33.771853 6.38027528,33.0252438 C6.38027528,32.269455 6.12580709,31.6360706 5.61686308,31.1250717 C5.11100358,30.6110129 4.48485762,30.3539874 3.7384064,30.3539874 C2.99503969,30.3539874 2.3673515,30.6110129 1.85532298,31.1250717 C1.34329446,31.6330108 1.08728404,32.2602755 1.08728404,33.0068847 Z M14.424062,33.5484796 L16.635644,36.56856 L15.3170229,36.56856 L13.2766303,33.6678141 L13.0823072,33.6678141 L13.0823072,36.56856 L12.0042766,36.56856 L12.0042766,29.4819277 L13.2673768,29.4819277 C14.2112366,29.4819277 14.8929029,29.6578678 15.3123962,30.0097533 C15.7750725,30.4014171 16.0064072,30.9185281 16.0064072,31.5611015 C16.0064072,32.0629208 15.8614375,32.4943566 15.5714936,32.8554217 C15.2815498,33.2164868 14.8990764,33.4475038 14.424062,33.5484796 Z M13.0823072,32.7360872 L13.424686,32.7360872 C14.4456585,32.7360872 14.9561371,32.349019 14.9561371,31.5748709 C14.9561371,30.8496808 14.4595386,30.4870912 13.4663267,30.4870912 L13.0823072,30.4870912 L13.0823072,32.7360872 Z M22.7778403,30.4870912 L22.7778403,36.56856 L21.6998097,36.56856 L21.6998097,30.4870912 L20.0573168,30.4870912 L20.0573168,29.4819277 L24.4157064,29.4819277 L24.4157064,30.4870912 L22.7778403,30.4870912 Z M29.6371814,32.2541595 L32.7185906,32.2541595 L32.7185906,29.4819277 L33.7966212,29.4819277 L33.7966212,36.56856 L32.7185906,36.56856 L32.7185906,33.259323 L29.6371814,33.259323 L29.6371814,36.56856 L28.5591508,36.56856 L28.5591508,29.4819277 L29.6371814,29.4819277 L29.6371814,32.2541595 Z M38.3333385,32.9931153 C38.3333385,31.9955965 38.7019318,31.1388447 39.4391295,30.4228342 C40.1732426,29.7068237 41.055399,29.3488239 42.0856251,29.3488239 C43.1035131,29.3488239 43.9764161,29.7098836 44.7043603,30.4320138 C45.4353889,31.154144 45.8008978,32.0216052 45.8008978,33.0344234 C45.8008978,34.0533614 45.4338467,34.9177628 44.6997335,35.6276535 C43.9625358,36.3406041 43.0726683,36.697074 42.0301042,36.697074 C41.107836,36.697074 40.2796577,36.3803818 39.5455445,35.746988 C38.7374031,35.0462769 38.3333385,34.1283285 38.3333385,32.9931153 Z M39.4206225,33.0068847 C39.4206225,33.7902124 39.6858863,34.4343061 40.2164219,34.9391853 C40.743873,35.4440645 41.3530544,35.6965003 42.0439844,35.6965003 C42.7935201,35.6965003 43.425835,35.4394747 43.9409481,34.9254159 C44.4560611,34.4052374 44.7136137,33.771853 44.7136137,33.0252438 C44.7136137,32.269455 44.4591456,31.6360706 43.9502016,31.1250717 C43.444342,30.6110129 42.8181961,30.3539874 42.0717449,30.3539874 C41.3283782,30.3539874 40.70069,30.6110129 40.1886614,31.1250717 C39.6766329,31.6330108 39.4206225,32.2602755 39.4206225,33.0068847 Z M50.3376151,36.56856 L50.3376151,29.4819277 L51.8366791,29.4819277 C52.5553697,29.4819277 53.1229109,29.5523038 53.5393196,29.6930579 C53.9865734,29.8307523 54.3921803,30.0648291 54.7561524,30.3952955 C55.4933501,31.062348 55.8619434,31.9389886 55.8619434,33.0252438 C55.8619434,34.1145589 55.4779277,34.9957893 54.709885,35.6689616 C54.3243213,36.0055477 53.9202567,36.2396245 53.4976789,36.3711991 C53.1028618,36.5027737 52.5430317,36.56856 51.8181721,36.56856 L50.3376151,36.56856 Z M51.4156457,35.5633964 L51.9014534,35.5633964 C52.3857214,35.5633964 52.7882438,35.5129093 53.1090327,35.4119334 C53.4298217,35.3048379 53.7197612,35.1350174 53.9788599,34.902467 C54.5093955,34.4220668 54.7746593,33.796332 54.7746593,33.0252438 C54.7746593,32.2480359 54.51248,31.6177113 53.9881134,31.1342513 C53.5161835,30.7028091 52.8206371,30.4870912 51.9014534,30.4870912 L51.4156457,30.4870912 L51.4156457,35.5633964 Z M60.0424017,32.9931153 C60.0424017,31.9955965 60.410995,31.1388447 61.1481927,30.4228342 C61.8823058,29.7068237 62.7644622,29.3488239 63.7946883,29.3488239 C64.8125763,29.3488239 65.6854793,29.7098836 66.4134235,30.4320138 C67.1444521,31.154144 67.509961,32.0216052 67.509961,33.0344234 C67.509961,34.0533614 67.1429099,34.9177628 66.4087967,35.6276535 C65.671599,36.3406041 64.7817315,36.697074 63.7391674,36.697074 C62.8168992,36.697074 61.9887209,36.3803818 61.2546077,35.746988 C60.4464663,35.0462769 60.0424017,34.1283285 60.0424017,32.9931153 Z M61.1296857,33.0068847 C61.1296857,33.7902124 61.3949495,34.4343061 61.9254851,34.9391853 C62.4529361,35.4440645 63.0621176,35.6965003 63.7530476,35.6965003 C64.5025833,35.6965003 65.1348982,35.4394747 65.6500113,34.9254159 C66.1651243,34.4052374 66.4226769,33.771853 66.4226769,33.0252438 C66.4226769,32.269455 66.1682088,31.6360706 65.6592647,31.1250717 C65.1534052,30.6110129 64.5272593,30.3539874 63.7808081,30.3539874 C63.0374414,30.3539874 62.4097532,30.6110129 61.8977246,31.1250717 C61.3856961,31.6330108 61.1296857,32.2602755 61.1296857,33.0068847 Z M72.0466783,36.56856 L72.0466783,29 L77.2563882,34.4067699 L77.2563882,29.4819277 L78.3344188,29.4819277 L78.3344188,37 L73.1247089,31.6069994 L73.1247089,36.56856 L72.0466783,36.56856 Z M85.1983866,30.4870912 L85.1983866,36.56856 L84.120356,36.56856 L84.120356,30.4870912 L82.4778631,30.4870912 L82.4778631,29.4819277 L86.8362528,29.4819277 L86.8362528,30.4870912 L85.1983866,30.4870912 Z M92.0577277,29.4819277 L92.0577277,36.56856 L90.9796971,36.56856 L90.9796971,29.4819277 L92.0577277,29.4819277 Z M102.234442,29.8628801 L102.234442,31.1296615 C101.611371,30.6125428 100.966718,30.3539874 100.300464,30.3539874 C99.566351,30.3539874 98.9479162,30.6156027 98.4451412,31.1388411 C97.9392817,31.6590196 97.6863558,32.2954638 97.6863558,33.0481928 C97.6863558,33.7917421 97.9392817,34.4190068 98.4451412,34.9300057 C98.9510007,35.4410047 99.5709778,35.6965003 100.305091,35.6965003 C100.684486,35.6965003 101.006812,35.6353037 101.27208,35.5129088 C101.420136,35.4517113 101.573588,35.3690959 101.73244,35.2650602 C101.891293,35.1610245 102.058625,35.0355716 102.234442,34.8886976 L102.234442,36.178428 C101.61754,36.5241937 100.969803,36.697074 100.291211,36.697074 C99.2702382,36.697074 98.3988774,36.3436639 97.6771023,35.636833 C96.9584117,34.9238825 96.5990717,34.0640708 96.5990717,33.0573723 C96.5990717,32.1547096 96.8998069,31.3499748 97.5012862,30.643144 C98.2415684,29.7771997 99.1992941,29.3442341 100.374492,29.3442341 C101.01607,29.3442341 101.636047,29.5171144 102.234442,29.8628801 Z M110.81493,30.5375789 L109.940476,31.0516351 C109.776997,30.7701267 109.621232,30.5865371 109.473176,30.5008606 C109.31895,30.4029446 109.120002,30.3539874 108.876326,30.3539874 C108.577129,30.3539874 108.328829,30.4381326 108.131421,30.6064257 C107.934012,30.7716589 107.835309,30.9797272 107.835309,31.2306368 C107.835309,31.5764026 108.094404,31.8548469 108.612602,32.0659782 L109.32512,32.3551348 C109.905008,32.5876852 110.329121,32.8714843 110.597474,33.2065404 C110.865826,33.5415966 111,33.9523785 111,34.4388985 C111,35.0906516 110.781003,35.6291813 110.343003,36.0545037 C109.901918,36.4828861 109.354426,36.697074 108.70051,36.697074 C108.080524,36.697074 107.568503,36.5150143 107.164432,36.1508893 C106.76653,35.7867643 106.518231,35.2742431 106.419527,34.6133104 L107.511438,34.3746414 C107.56079,34.7907843 107.647155,35.0784081 107.770535,35.2375215 C107.99262,35.5435089 108.316488,35.6965003 108.742151,35.6965003 C109.078362,35.6965003 109.357506,35.5848166 109.579591,35.3614458 C109.801675,35.138075 109.912716,34.8550409 109.912716,34.5123351 C109.912716,34.3746407 109.893438,34.2484228 109.854882,34.1336776 C109.816325,34.0189323 109.756178,33.9133682 109.674439,33.8169822 C109.592699,33.7205962 109.487056,33.6303313 109.357507,33.5461847 C109.227958,33.4620382 109.073735,33.3817177 108.894833,33.3052209 L108.205449,33.020654 C107.227659,32.610631 106.738772,32.0109047 106.738772,31.2214573 C106.738772,30.6890392 106.943889,30.2438343 107.354128,29.885829 C107.764368,29.5247639 108.274847,29.3442341 108.88558,29.3442341 C109.709143,29.3442341 110.352254,29.7420117 110.81493,30.5375789 Z" id="ORTHODONTICS-Copy"></path>
                        </g>
                    </g>
                </g>
            </g>
        </g>
    </g>
</svg>
